X:1
T:Hodie apparuit
T:Giovanni Pietro Berti
T:Source : Ghirlanda Sacra---Venetia---Ang.Gardano (B.Magni)---1625 Editor : André Vierendeels (17/12/16).
T:Notes : Original clefs : C1, F4 Editorial accidentals above the staff Music collected by Leonardo Simonetti 
T:Hodie apparuit
T:©
T:©
T:©
T:©
T:©
C:Giovanni Pietro Berti
Z:©
%%score 1 2
L:1/8
Q:1/4=117
M:4/4
K:F
V:1 treble nm="Soprano" snm="S"
V:2 bass nm="MusicXML Part"
V:1
 F8 | G6 G2 | A4 z ABc | d2 c>B B3 A | G2 _e4 d2 | d8 | c8 | z2 cG A2 GA | B2 A>G G4 | F4 G2 GD | %10
w: Ho-|* di|e ap- pa- ru-|e- runt de- li- ti-|ae Pa- ra-|di-|si|et lae- ti- ti- ae|or- bis ter- ra-|rum, flo- ris o-|
 E^FGA F3 F | ^F4 d2 fe | dcBA G2 G2 | c2 _ed cBAG | ^F2 F2 z4 | z GAB c3 B | AABc d3 c | %17
w: do- ris su- a- vis- si-|mi ac- cu- ri-|te Ce- le- stes cho- ri,|ac- cu- ri- te Ce- le- stis|cho- ri,|et ad- mi- ra- mi-|ni, et ad- mi- ra- mi-|
 B2 _e3 ddc | c8 | B8 | B2 BB B2 B2 | BB/B/ BB/B/ BB B/B/B | B3 A c2 c2 |[M:6/2] F8 F4 F4 G4 G4 | %24
w: ni fa- ci- em de-|co-|ram,|o- cu- li e- ius|qua si Co- lum- be su- per ri- vos mur- mu-|ran- tes a- que,|ec- ce tu pil- chra|
 A12 B4 c4 c4 |[M:4/4] d3 c _edcB | A3 G G3 G | BAGF E3 D | D8 |[M:6/4] F4 F2 F2 G2 A2 | B6 B2 B4 | %31
w: es, tu pul- chra|es, tu to- ta de- le-|cta- bil- is, tu|to- ta de- le- cta- bi-|lis,|mil- le a- mo- ris|ra- di- i,|
 G2 G2 G2 G2 A2 B2 | c4 c4 z4 | A2 A2 A2 A2 B2 c2 | d4 d2 d2 B2 A2 | G4 G2 _e2 c2 B2 | B2 A2 A8 | %37
w: mil- le flam- me Cha- ri-|ta- tis,|mil- le mu- net- ta Cae-|le- sti- um te de-|can- tant Re- gi- na|An- ge- lo-|
[M:4/4] G2 AG F2 Fd | BAAG G4 | F8 :: z2 F2 A2 AB | c2 BA dc Tc>B | c4 z2 F2 | %43
w: rum, te de- can- tant Re-|gi- na An- ge- lo-|rum,|et so- li- um|glo- ri- e De- * * *|i, et|
 A2 AB c/B/A/B/ c/d/_e/c/ |"^b" d/e/c/d/ B/c/A/B/ GA/B/ c/d/B/c/ | %45
w: so- li- um glo- * * * * * * *||
 A/B/G/A/ F/G/E/F/ DE/F/ G/A/F/G/ | E/C/D/E/ F/G/A/B/ c2 TB/B/A/G/ | A6 GF | G8 | F8 :| %50
w: ||* ri- e|De-|i.|
V:2
"^BC" F,8 | C,8 | F,,8 | B,,2 A,,2 G,,4 | _E,4 C,4 | G,8 | C,8 |"^-natural" E,4 F,4 | D,4 _E,4 | %9
 B,,4 =B,,4 | C,4 D,4 | D,8 | D,4 _E,4 | C,8 | D,4 z B,,C,D, | _E,3 D, C,C,D,E, | %16
"^(b)""^(b)" F,3 E, D,D,E,F, | G,2 _E,2 B,,2 D,2 | _E,4 F,4 | B,,8 | B,,8- | B,,8 | B,,4 F,4 | %23
[M:6/2] F,6 E,2 D,4 A,,4 B,,4 C,4 | F,6 E,2 D,4 B,,4 _E,4 F,4 |[M:4/4] B,,2 _E,2 C,4 | D,4 G,,4 | %27
 G,,4 A,,4 | D,8 |[M:6/4] D,12 | B,,12 | _E,12 | C,12 | F,12 | B,,12 | _E,4 C,4 A,,4 | %36
 B,,4 C,4 D,4 |[M:4/4] G,,2 ^C,2 D,2 B,,2 | G,,2 A,,2 B,,2 C,2 | F,,8 :: F,,8 | F,,4 B,,4 | F,,8 | %43
 F,8 | B,,4 _E,2 C,2 | F,4 G,2 G,,2 | C,8- | C,8 | C,8 | F,,8 :| %50

